img/doc.svg

<svg width="99" height="107" viewBox="0 0 99 107" fill="none" xmlns="http://www.w3.org/2000/svg">
<path d="M13.9031 23.452C6.57131 23.452 0.606689 29.4168 0.606689 36.7484C0.606689 43.5486 5.73893 49.1692 12.3328 49.9489V60.2005C12.3328 61.0677 13.036 61.771 13.9033 61.771C14.7706 61.771 15.4738 61.0677 15.4738 60.2005V49.9489C22.0677 49.1692 27.1999 43.5484 27.1999 36.7484C27.1997 29.4168 21.2349 23.452 13.9031 23.452ZM13.9031 46.904C8.30337 46.904 3.74752 42.3482 3.74752 36.7484C3.74752 31.1487 8.30337 26.5928 13.9031 26.5928C19.5028 26.5928 24.0587 31.1487 24.0587 36.7484C24.0587 42.3482 19.5031 46.904 13.9031 46.904Z" fill="#A07B50"/>
<path d="M13.9031 30.1527C10.2662 30.1527 7.30716 33.1117 7.30716 36.7487C7.30716 40.3856 10.2662 43.3446 13.9031 43.3446C17.5401 43.3446 20.4991 40.3856 20.4991 36.7487C20.4991 33.1117 17.5401 30.1527 13.9031 30.1527ZM13.9031 40.2036C11.998 40.2036 10.4482 38.6536 10.4482 36.7487C10.4482 34.8438 11.9982 33.2938 13.9031 33.2938C15.8082 33.2938 17.3581 34.8438 17.3581 36.7487C17.3581 38.6536 15.8082 40.2036 13.9031 40.2036Z" fill="#A07B50"/>
<path d="M96.8229 37.6908H95.8806V10.7838C95.8806 6.22314 92.1701 2.51283 87.6096 2.51283H84.1547V1.57052C84.1547 0.703232 83.4517 0 82.5842 0H78.3963C76.1449 0 74.3132 1.83175 74.3132 4.08314C74.3132 6.33453 76.1449 8.16627 78.3963 8.16627H82.5842C83.4517 8.16627 84.1547 7.46304 84.1547 6.59576V5.65345H87.6096C90.4384 5.65345 92.7398 7.95499 92.7398 10.7836V37.6905H91.7975C90.93 37.6905 90.2269 38.3938 90.2269 39.2611V41.7737C90.2269 48.759 84.5438 54.4419 77.5587 54.4419H57.4569C50.4718 54.4419 44.7887 48.759 44.7887 41.7737V39.2611C44.7887 38.3938 44.0855 37.6905 43.2182 37.6905H42.2759V10.7838C42.2759 7.9552 44.5774 5.65365 47.406 5.65365H50.861V6.59596C50.861 7.46325 51.564 8.16648 52.4315 8.16648H56.6193C58.8707 8.16648 60.7025 6.33473 60.7025 4.08335C60.7027 1.83175 58.8709 0 56.6193 0H52.4315C51.564 0 50.861 0.703232 50.861 1.57052V2.51283H47.406C42.8454 2.51283 39.1351 6.22335 39.1351 10.7838V37.6908H38.1927C37.3255 37.6908 36.6222 38.394 36.6222 39.2613V41.7739C36.6222 53.262 45.9686 62.6086 57.4569 62.6086H63.4247V70.2514C63.4247 71.1186 64.1277 71.8219 64.9952 71.8219H65.9375V80.3022C65.9375 93.2915 55.3698 103.859 42.3808 103.859H39.0306C26.0413 103.859 15.4738 93.2915 15.4738 80.3022V67.8083C15.4738 66.941 14.7706 66.2378 13.9033 66.2378C13.036 66.2378 12.3328 66.941 12.3328 67.8083V80.3022C12.3328 95.0235 24.3093 107 39.0306 107H42.3808C57.1021 107 69.0786 95.0235 69.0786 80.3022V71.8219H70.0209C70.8884 71.8219 71.5914 71.1186 71.5914 70.2514V62.6086H77.5591C89.0472 62.6086 98.3938 53.2622 98.3938 41.7739V39.2613C98.3934 38.394 97.6904 37.6908 96.8229 37.6908ZM81.0136 5.02545H78.3963C77.8768 5.02545 77.454 4.60267 77.454 4.08314C77.454 3.5636 77.8768 3.14083 78.3963 3.14083H81.0136V5.02545ZM54.002 3.14083H56.6193C57.1389 3.14083 57.5616 3.5636 57.5616 4.08314C57.5616 4.60267 57.1389 5.02545 56.6193 5.02545H54.002V3.14083ZM95.2526 41.7739C95.2526 51.5301 87.3154 59.4675 77.5589 59.4675H70.0209C69.1534 59.4675 68.4503 60.1708 68.4503 61.0381V68.6808H66.5657V61.0381C66.5657 60.1708 65.8627 59.4675 64.9952 59.4675H57.4571C47.7007 59.4675 39.7635 51.5301 39.7635 41.7739V40.8316H41.6481V41.7739C41.6481 50.4913 48.74 57.5831 57.4573 57.5831H77.5591C86.2765 57.5831 93.3684 50.4913 93.3684 41.7739V40.8316H95.253L95.2526 41.7739Z" fill="#A07B50"/>
<path d="M67.5078 25.1272C60.4071 25.1272 54.6302 30.9041 54.6302 38.0048C54.6302 44.495 59.4441 48.3698 67.5078 48.3698C75.5715 48.3698 80.3854 44.495 80.3854 38.0048C80.3856 30.9041 74.6087 25.1272 67.5078 25.1272ZM67.5078 45.229C63.8715 45.229 57.771 44.2904 57.771 38.0048C57.771 32.636 62.1388 28.268 67.5078 28.268C72.8768 28.268 77.2446 32.636 77.2446 38.0048C77.2446 44.2904 71.1441 45.229 67.5078 45.229Z" fill="#A07B50"/>
<path d="M61.2261 12.5636C58.0163 12.5636 55.8866 16.5334 55.8866 19.1595C55.8866 22.1039 58.2818 24.4991 61.2261 24.4991C64.1705 24.4991 66.5657 22.1039 66.5657 19.1595C66.5655 16.5336 64.4359 12.5636 61.2261 12.5636ZM61.2261 21.3583C60.0138 21.3583 59.0274 20.3721 59.0274 19.1595C59.0274 17.6743 60.2809 15.7046 61.2261 15.7046C62.1714 15.7046 63.4249 17.6743 63.4249 19.1595C63.4247 20.3718 62.4385 21.3583 61.2261 21.3583Z" fill="#A07B50"/>
<path d="M73.7896 12.5636C70.5798 12.5636 68.4501 16.5334 68.4501 19.1595C68.4501 22.1039 70.8453 24.4991 73.7896 24.4991C76.734 24.4991 79.1292 22.1039 79.1292 19.1595C79.1292 16.5336 76.9994 12.5636 73.7896 12.5636ZM73.7896 21.3583C72.5773 21.3583 71.5909 20.3721 71.5909 19.1595C71.5909 17.6743 72.8444 15.7046 73.7896 15.7046C74.7349 15.7046 75.9884 17.6743 75.9884 19.1595C75.9884 20.3718 75.002 21.3583 73.7896 21.3583Z" fill="#A07B50"/>
<path d="M83.8405 20.1018C80.6307 20.1018 78.501 24.0716 78.501 26.6977C78.501 29.6421 80.8961 32.0373 83.8405 32.0373C86.7849 32.0373 89.1801 29.6421 89.1801 26.6977C89.1801 24.0716 87.0503 20.1018 83.8405 20.1018ZM83.8405 28.8963C82.6282 28.8963 81.6418 27.9101 81.6418 26.6975C81.6418 25.2123 82.8953 23.2426 83.8405 23.2426C84.7858 23.2426 86.0393 25.2123 86.0393 26.6975C86.0391 27.9101 85.0528 28.8963 83.8405 28.8963Z" fill="#A07B50"/>
<path d="M51.1753 20.1018C47.9655 20.1018 45.8357 24.0716 45.8357 26.6977C45.8357 29.6421 48.2309 32.0373 51.1753 32.0373C54.1196 32.0373 56.5148 29.6421 56.5148 26.6977C56.5148 24.0716 54.385 20.1018 51.1753 20.1018ZM51.1753 28.8963C49.9629 28.8963 48.9765 27.9101 48.9765 26.6975C48.9765 25.2123 50.23 23.2426 51.1753 23.2426C52.1205 23.2426 53.374 25.2123 53.374 26.6975C53.3738 27.9101 52.3876 28.8963 51.1753 28.8963Z" fill="#A07B50"/>
</svg>

<svg width="99" height="107" fill="none" xmlns="http://www.w3.org/2000/svg"><path d="M13.903 23.452C6.571 23.452.607 29.417.607 36.748c0 6.8 5.132 12.421 11.726 13.2V60.2a1.57 1.57 0 003.14 0V49.95c6.595-.78 11.727-6.4 11.727-13.2 0-7.332-5.965-13.297-13.297-13.297zm0 23.452c-5.6 0-10.155-4.556-10.155-10.156 0-5.6 4.555-10.155 10.155-10.155S24.06 31.149 24.06 36.748c0 5.6-4.556 10.156-10.156 10.156z" fill="#A07B50"/><path d="M13.903 30.153a6.604 6.604 0 00-6.596 6.596 6.604 6.604 0 006.596 6.596 6.604 6.604 0 006.596-6.596 6.604 6.604 0 00-6.596-6.596zm0 10.05a3.459 3.459 0 01-3.455-3.454 3.459 3.459 0 013.455-3.455 3.459 3.459 0 013.455 3.455 3.459 3.459 0 01-3.455 3.455zm82.92-2.513h-.942V10.785c0-4.56-3.71-8.271-8.271-8.271h-3.455V1.57A1.57 1.57 0 0082.585 0h-4.189a4.088 4.088 0 00-4.083 4.083 4.088 4.088 0 004.083 4.083h4.188a1.57 1.57 0 001.57-1.57v-.943h3.456a5.136 5.136 0 015.13 5.13V37.69h-.942a1.57 1.57 0 00-1.571 1.571v2.513c0 6.985-5.683 12.668-12.668 12.668H57.457c-6.985 0-12.668-5.683-12.668-12.668V39.26a1.57 1.57 0 00-1.57-1.57h-.943V10.784a5.136 5.136 0 015.13-5.13h3.455v.942c0 .867.703 1.57 1.57 1.57h4.188a4.088 4.088 0 004.084-4.083A4.088 4.088 0 0056.618 0H52.43a1.57 1.57 0 00-1.57 1.57v.943h-3.455c-4.56 0-8.27 3.71-8.27 8.27v26.908h-.943a1.57 1.57 0 00-1.57 1.57v2.513c0 11.488 9.346 20.835 20.834 20.835h5.968v7.642c0 .868.703 1.57 1.57 1.57h.942v8.481c0 12.99-10.567 23.557-23.556 23.557h-3.35c-12.99 0-23.557-10.567-23.557-23.557V67.808a1.57 1.57 0 00-3.141 0v12.494C12.333 95.023 24.309 107 39.03 107h3.35c14.721 0 26.698-11.977 26.698-26.698v-8.48h.942a1.57 1.57 0 001.57-1.57v-7.643h5.968c11.488 0 20.835-9.347 20.835-20.835V39.26c0-.867-.704-1.57-1.571-1.57zM81.013 5.026h-2.617a.943.943 0 010-1.884h2.618v1.884zm-27.01-1.885h2.617a.943.943 0 010 1.884h-2.617V3.141zm41.25 38.633c0 9.756-7.937 17.694-17.693 17.694h-7.54a1.57 1.57 0 00-1.57 1.57v7.643h-1.885v-7.643a1.57 1.57 0 00-1.57-1.57h-7.539c-9.756 0-17.694-7.938-17.694-17.694v-.942h1.885v.942c0 8.717 7.092 15.81 15.81 15.81h20.101c8.718 0 15.81-7.093 15.81-15.81v-.942h1.884v.942z" fill="#A07B50"/><path d="M67.508 25.127c-7.1 0-12.878 5.777-12.878 12.878 0 6.49 4.814 10.365 12.878 10.365s12.877-3.875 12.877-10.365c0-7.1-5.776-12.878-12.877-12.878zm0 20.102c-3.636 0-9.737-.939-9.737-7.224 0-5.369 4.368-9.737 9.737-9.737s9.737 4.368 9.737 9.737c0 6.285-6.1 7.224-9.737 7.224zm-6.282-32.665c-3.21 0-5.34 3.97-5.34 6.596a5.345 5.345 0 005.34 5.34 5.345 5.345 0 005.34-5.34c0-2.626-2.13-6.596-5.34-6.596zm0 8.794a2.201 2.201 0 01-2.199-2.198c0-1.486 1.254-3.455 2.2-3.455.944 0 2.198 1.97 2.198 3.455a2.202 2.202 0 01-2.199 2.198zm12.564-8.794c-3.21 0-5.34 3.97-5.34 6.596a5.345 5.345 0 005.34 5.34 5.345 5.345 0 005.34-5.34c0-2.626-2.13-6.596-5.34-6.596zm0 8.794a2.201 2.201 0 01-2.2-2.198c0-1.486 1.254-3.455 2.2-3.455.945 0 2.198 1.97 2.198 3.455a2.201 2.201 0 01-2.198 2.198zm10.05-1.256c-3.21 0-5.339 3.97-5.339 6.596a5.345 5.345 0 005.34 5.34 5.345 5.345 0 005.34-5.34c0-2.626-2.13-6.596-5.34-6.596zm0 8.794a2.201 2.201 0 01-2.198-2.198c0-1.486 1.253-3.455 2.199-3.455.945 0 2.198 1.97 2.198 3.455a2.201 2.201 0 01-2.198 2.198zm-32.665-8.794c-3.21 0-5.34 3.97-5.34 6.596a5.345 5.345 0 005.34 5.34 5.345 5.345 0 005.34-5.34c0-2.626-2.13-6.596-5.34-6.596zm0 8.794a2.201 2.201 0 01-2.198-2.198c0-1.486 1.253-3.455 2.198-3.455.946 0 2.199 1.97 2.199 3.455a2.201 2.201 0 01-2.199 2.198z" fill="#A07B50"/></svg>
